build/logo/KafkaSolid.svg

<svg xmlns="http://www.w3.org/2000/svg" fill="none" viewBox="0 0 24 24" focusable="false"><path d="M0 0H24V24H0z"/><path fill="#74767B" d="M12.4182 4.75843C12.4182 6.05763 11.52 7.14705 10.3107 7.43961L10.3107 8.55299C11.1084 8.70273 11.8109 9.12251 12.3196 9.71379L13.6016 8.9736C13.5385 8.74209 13.5049 8.49845 13.5049 8.24696C13.5049 6.72352 14.7399 5.48853 16.2633 5.48853C17.7868 5.48853 19.0217 6.72352 19.0217 8.24696C19.0217 9.7704 17.7868 11.0054 16.2633 11.0054C15.4588 11.0054 14.7348 10.661 14.2305 10.1116L12.9703 10.8392C13.0977 11.2025 13.167 11.5932 13.167 12C13.167 12.4068 13.0978 12.7974 12.9704 13.1607L14.2307 13.8883C14.7349 13.339 15.4589 12.9946 16.2633 12.9946C17.7868 12.9946 19.0217 14.2296 19.0217 15.7531C19.0217 17.2765 17.7868 18.5115 16.2633 18.5115C14.7399 18.5115 13.5049 17.2765 13.5049 15.7531C13.5049 15.5015 13.5386 15.2578 13.6016 15.0262L12.3197 14.2861C11.811 14.8774 11.1085 15.2973 10.3107 15.447L10.3107 16.5604C11.52 16.853 12.4182 17.9424 12.4182 19.2416C12.4182 20.765 11.1832 22 9.6598 22C8.13636 22 6.90137 20.765 6.90137 19.2416C6.90137 17.9417 7.80049 16.8518 9.01074 16.5599L9.01074 15.4474C7.38373 15.1431 6.15234 13.7153 6.15234 12C6.15234 10.2847 7.38373 8.85696 9.01074 8.55259L9.01074 7.44007C7.80049 7.14819 6.90137 6.05831 6.90137 4.75843C6.90137 3.23499 8.13636 2 9.6598 2C11.1832 2 12.4182 3.23499 12.4182 4.75843Z"/></svg>

<svg xmlns="http://www.w3.org/2000/svg" fill="none" viewBox="0 0 24 24" focusable="false"><path fill="#74767B" d="M12.41 4.75c0 1.3-.89 2.39-2.1 2.68v1.12c.79.15 1.5.57 2 1.16l1.29-.74a2.76 2.76 0 1 1 5.42-.73A2.76 2.76 0 0 1 16.26 11c-.81 0-1.53-.34-2.03-.89l-1.26.72c.12.37.19.76.19 1.17 0 .4-.07.79-.19 1.16l1.26.72c.5-.55 1.22-.89 2.03-.89a2.76 2.76 0 1 1 0 5.52 2.76 2.76 0 0 1-2.66-3.49l-1.29-.74c-.5.59-1.21 1.01-2 1.16v1.12c1.21.29 2.1 1.38 2.1 2.68A2.76 2.76 0 0 1 9.65 22c-1.52 0-2.75-1.24-2.75-2.76 0-1.3.9-2.39 2.11-2.69v-1.11A3.5 3.5 0 0 1 6.15 12c0-1.72 1.23-3.15 2.86-3.45V7.44A2.78 2.78 0 0 1 6.9 4.75C6.9 3.23 8.13 2 9.65 2a2.75 2.75 0 0 1 2.76 2.75"/></svg>
